X:546
T:End of The Road, The
C:Joe Buchanan's Scottish Tome - Page 090.0
I:090 0
R:Reel
Z:Carl Allison
L:1/8
M:4/4
K:Bb
|:"Bb"B2 B2 | B2 AG | F2 FG | F8 |
| D F3 | "F7"E D2 C | "Bb"B,4- | B,2 DF |
| B2 B2 | "C7"B2 AG | "F"A2 "C"B2 |"F"c4 |
| "F"c A3 | "C7"A2 GA | "F"F4- | F2 GA |
| "Bb"B3 A | c B3 | "Cm"B A2 ^G | "F"A2 EF |
| "Bb"G G2 G | G F2 D |"F7"F4- | F2 F2 |
|"Bb" d2 d2 | B2 cd |"Eb" e2 =e2 |"Bb" f2 dB |
|"F7"(F4 |F2) AB |(c4 | c2) BB |
|"Bb" (B4 | B)"F7"FGA :| B4- | B4 |]
